seeds/icons/ensuite_bathroom.svg

<?xml version="1.0" encoding="utf-8"?><!-- Uploaded to: SVG Repo, www.svgrepo.com, Generator: SVG Repo Mixer Tools -->
<svg width="1.5rem" height="1.5rem" viewBox="0 0 24 24" fill="none" xmlns="http://www.w3.org/2000/svg">
<path fill-rule="evenodd" clip-rule="evenodd" d="M3 5.00611L3.00018 4.99962C3.01218 4.63969 3.10892 4.26822 3.26943 3.94721C3.39761 3.69084 3.57419 3.46489 3.82033 3.3008C4.06021 3.14088 4.42499 3 5 3C5.57502 3 5.9398 3.14088 6.17967 3.3008C6.48866 3.50679 6.69219 3.8208 6.81777 4.14477C6.22162 4.30128 5.72626 4.57709 5.32555 4.93481C4.70429 5.48942 4.3823 6.17607 4.21313 6.72163C4.02059 7.34253 4.19257 7.9476 4.56764 8.37037C4.92761 8.77611 5.45463 9 6 9H10C10.5454 9 11.0724 8.77611 11.4324 8.37037C11.8074 7.9476 11.9794 7.34253 11.7869 6.72163C11.6177 6.17607 11.2957 5.48942 10.6745 4.93481C10.2084 4.51876 9.61431 4.2135 8.88252 4.07789C8.81351 3.77563 8.70182 3.41757 8.51943 3.05279C8.27261 2.55916 7.88669 2.03511 7.28908 1.6367C6.68521 1.23412 5.92499 1 5 1C4.07502 1 3.3148 1.23412 2.71092 1.6367C2.11331 2.03511 1.72739 2.55916 1.48057 3.05279C1.23572 3.5425 1.11827 4.02011 1.06048 4.36685C1.02595 4.57403 1.00127 4.78516 1.00001 4.99552L1 13C1.00011 13.0906 1.00205 13.1801 1.00864 13.3416C1.01708 13.5482 1.0338 13.8399 1.067 14.1886C1.13297 14.8812 1.26604 15.8212 1.53848 16.7747C1.80759 17.7166 2.23337 18.7464 2.92824 19.557C3.64853 20.3974 4.66199 21 6 21L6 22C6 22.5523 6.44772 23 7 23C7.55229 23 8 22.5523 8 22V21H16V22C16 22.5523 16.4477 23 17 23C17.5523 23 18 22.5523 18 22L18 21C20.0879 21 21.3006 19.566 21.9601 18.1431C22.6171 16.7257 22.8534 15.0872 22.9426 14.0842C23.048 12.8984 22.0873 12 21 12H3V5.00611ZM3.0581 14C3.11716 14.6197 3.23408 15.4292 3.46152 16.2253C3.69241 17.0334 4.01663 17.7536 4.44676 18.2555C4.85147 18.7276 5.33801 19 6 19H18C18.9628 19 19.6375 18.3981 20.1456 17.302C20.6394 16.2366 20.8536 14.926 20.9419 14H3.0581ZM9.34254 6.42679C9.52126 6.58633 9.65602 6.78564 9.75612 7H6.24388C6.34398 6.78564 6.47874 6.58633 6.65746 6.42679C6.90165 6.2088 7.29876 6 8 6C8.70124 6 9.09836 6.2088 9.34254 6.42679Z" fill="#0F0F0F"/>
</svg>

<svg xmlns="http://www.w3.org/2000/svg" width="1.5rem" height="1.5rem" fill="none" viewBox="0 0 24 24"><path fill="#0F0F0F" fill-rule="evenodd" d="M3 5.006V5c.012-.36.109-.732.27-1.053.128-.256.304-.482.55-.646C4.06 3.14 4.425 3 5 3s.94.14 1.18.3c.309.207.512.52.638.845a3.6 3.6 0 0 0-1.492.79c-.622.554-.944 1.241-1.113 1.787a1.7 1.7 0 0 0 .355 1.648c.36.406.887.63 1.432.63h4c.545 0 1.072-.224 1.432-.63a1.7 1.7 0 0 0 .355-1.648c-.17-.546-.491-1.233-1.113-1.787a3.64 3.64 0 0 0-1.791-.857 4.6 4.6 0 0 0-.364-1.025 3.63 3.63 0 0 0-1.23-1.416C6.685 1.234 5.925 1 5 1s-1.685.234-2.29.637a3.63 3.63 0 0 0-1.23 1.416c-.244.49-.362.967-.42 1.314-.034.207-.059.418-.06.629V13a15.834 15.834 0 0 0 .067 1.189c.066.692.199 1.632.471 2.586.27.942.695 1.971 1.39 2.782C3.648 20.397 4.662 21 6 21v1a1 1 0 1 0 2 0v-1h8v1a1 1 0 1 0 2 0v-1c2.088 0 3.3-1.434 3.96-2.857.657-1.417.893-3.056.983-4.059C23.048 12.898 22.087 12 21 12H3zM3.058 14c.06.62.176 1.43.404 2.225.23.808.555 1.529.985 2.03.404.473.891.745 1.553.745h12c.963 0 1.637-.602 2.146-1.698.493-1.065.708-2.376.796-3.302zm6.285-7.573c.178.16.313.359.413.573H6.244c.1-.214.235-.414.413-.573C6.902 6.209 7.3 6 8 6s1.098.209 1.343.427" clip-rule="evenodd"/></svg>
